X: 25134
T: Mairtin Byrne's
R: waltz
M: 3/4
K: Gmajor
G2 A|B3 D DB|DB DB DB|E3 D (3CDE|D4g>e|
d2 B3 A|B3 A GA|Be de dB|A4 G>A|
B3 D DB|DB DB DB|E3 D EF|G4 g>e|
d>g (3edc B>G|D2 B3 A|GB G3 G|G3:|
A Bc|d2 Bd Gd|d2 Bd Gd|e2 g3 a|g3 g (3age|
d2 B3 d|B3 A GA|Be de dB|A4 B>c|
d2 Bd Gd|d2 Bd Gd|e2 g3 a|g3 g (3age|
d>g (3edc B>G|D2 B3 A|GB G3 G|G3||
zG>A|B2 d3 e|d3 d ed|e2 g3 a|g3 g (3age|
d2 B3 d|B3 A GA|BA GE DB,|D3 D G>A|
B3 G GA|G2 (3BAG Bd|e2 g3 a|g3 g (3age|
d>g (3edc B>G|D2 B3 A|[GB][GB] [G3B3] [GB]|[G3B3]||

